X:1
T:Title
%%score { ( 1 3 ) | ( 2 4 ) }
L:1/8
Q:1/4=114
M:4/4
K:G
V:1 treble nm="Grand Piano"
V:3 treble 
V:2 bass 
V:4 bass 
V:1
 [DB]2 [DG]2 [EG]2 E2 | D4 G4 | A2 [DA]2 [DG]2 [DA]2 | [DB]2 B2 B4 | c2 c2 B2 d2 | z4 A4[K:bass] | %6
w: John~R.~Sweney * * *||||||
 [Dd]3 [Dc] [DB]2 [DG]2 | [EA]2 [Ec]2 E4 | D3 B B2 G2 | A4 [B,DG]4 | [EG]3 [EG] [DF]2 [DF]2 | %11
w: |||||
 E2 G2 D4 | G3 A B2 d2 | z4 A4[K:bass] | [Dd]3 [Dc] [DB]2 [DG]2 | [EA]2 [Ec]2 E4 | D3 B B2 G2 | %17
w: ||||||
 A4 [B,DG]4 |] %18
w: |
V:2
 [G,,G,]2 [B,,G,]2 [C,G,]2 [E,G,C]2 | [G,B,]4 [G,B,D]4 | [D,F,D]2 [C,F,]2 [B,,G,]2 [A,,F,]2 | %3
 [G,,G,]2 [G,D]2 [G,D]4 | [F,A,D]2 [F,A,D]2 [G,D]2 [G,B,D]2 | z4 [F,D]4 | %6
 [B,,G,]3 [A,,F,] [G,,G,]2 [B,,G,]2 | [C,C]2 [C,G,]2 [C,G,C]4 | %8
 [D,G,B,]3 [D,G,D] [D,G,D]2 [D,B,D]2 | [D,CD]4 [G,,G,]4 | [E,B,]3 [E,B,] [B,,B,]2 [B,,B,]2 | %11
 [C,G,]2 [E,G,C]2 [G,B,]4 | [G,B,D]3 [G,CD] [G,DG]2[K:bass] [G,B,D]2 | z4 [F,D]4 | %14
 [B,,G,]3 [A,,F,] [G,,G,]2 [B,,G,]2 | [C,C]2 [C,G,]2 [C,G,C]4 | %16
 [D,G,B,]3 [D,G,D] [D,G,D]2 [D,B,D]2 | [D,CD]4 [A,,G,]4 |] %18
V:3
 x8 | x8 | x8 | x8 | x8 | A2 A2 z2[K:bass] C,2 | x8 | x8 | x8 | x8 | x8 | x8 | x8 | %13
 A2 B2 z2[K:bass] B,,2 | x8 | x8 | x8 | x8 |] %18
V:4
 x8 | x8 | x8 | x8 | x8 | [F,A,D]2 [E,G,^C]2 D,2 z2 | x8 | x8 | x8 | x8 | x8 | x8 | x6[K:bass] x2 | %13
 [F,A,D]2 [G,D]2 D,2 z2 | x8 | x8 | x8 | x8 |] %18

